X: 4414
M: 3/4
L: 1/8
K: C
(ge) |\
fedcBA | A2G2^FG | A2G2^FG | B2A2^GA |\
|:\
g2 |\
(eg)ggg2 | (^fg)ggg2 | (ag)ggg2 | (^fg)ggg2 |\
(=f3edc) | (d3cBA) | B2(gf)de | c4 :|


